polaris-icons/icons/newicons/UploadMajor.svg

<svg width="20" height="20" viewBox="0 0 20 20" fill="none" xmlns="http://www.w3.org/2000/svg">
<path d="M3 6.25C3 6.66421 3.33579 7 3.75 7C4.16421 7 4.5 6.66421 4.5 6.25V5.75C4.5 5.05964 5.05964 4.5 5.75 4.5L14.25 4.5C14.9404 4.5 15.5 5.05964 15.5 5.75V6.25C15.5 6.66421 15.8358 7 16.25 7C16.6642 7 17 6.66421 17 6.25V5.75C17 4.23122 15.7688 3 14.25 3H5.75C4.23122 3 3 4.23122 3 5.75V6.25Z" fill="black"/>
<path d="M10.75 16.25C10.75 16.6642 10.4142 17 10 17C9.58579 17 9.25 16.6642 9.25 16.25V8.46299L7.25871 10.3011C6.95435 10.5821 6.47985 10.5631 6.1989 10.2587C5.91795 9.95434 5.93693 9.47985 6.24129 9.1989L9.49129 6.1989C9.77859 5.9337 10.2214 5.9337 10.5087 6.1989L13.7587 9.1989C14.0631 9.47985 14.0821 9.95434 13.8011 10.2587C13.5202 10.5631 13.0457 10.5821 12.7413 10.3011L10.75 8.46299L10.75 16.25Z" fill="black"/>
</svg>

<svg viewBox="0 0 20 20" fill="none" xmlns="http://www.w3.org/2000/svg"><path d="M3 6.25a.75.75 0 0 0 1.5 0v-.5c0-.69.56-1.25 1.25-1.25h8.5c.69 0 1.25.56 1.25 1.25v.5a.75.75 0 0 0 1.5 0v-.5a2.75 2.75 0 0 0-2.75-2.75h-8.5a2.75 2.75 0 0 0-2.75 2.75v.5Z" fill="#5C5F62"/><path d="M10.75 16.25a.75.75 0 0 1-1.5 0v-7.787l-1.991 1.838a.75.75 0 1 1-1.018-1.102l3.25-3a.75.75 0 0 1 1.018 0l3.25 3a.75.75 0 1 1-1.018 1.102l-1.991-1.838v7.787Z" fill="#5C5F62"/></svg>
